public/images/icons/32x32/twitter_32_white.svg

<svg height="32" viewBox="0 0 32 32" width="32" xmlns="http://www.w3.org/2000/svg"><path d="m5.66064 13.9409591c6.79248 0 10.50768-5.36392153 10.50768-10.01549016 0-.15235294 0-.3040196-.0108-.455.7227586-.49829647 1.3466559-1.11527884 1.84248-1.82205882-.6740071.28466788-1.3890029.47135299-2.12112.55382353.7709357-.43991428 1.3479289-1.13182315 1.6236-1.94696078-.7249266.41001835-1.5180148.69897883-2.34504.85441176-1.1447404-1.16021961-2.9637221-1.44418744-4.4369645-.69267064-1.47324248.75151681-2.23435751 2.35161967-1.8565555 3.9030628-2.96935507-.14188758-5.73589744-1.47869972-7.61112-3.6777451-.98019161 1.60838363-.47952872 3.66598199 1.14336 4.69892157-.58770634-.01660267-1.16259885-.16771645-1.67616-.44058824v.04460784c.00048106 1.67560303 1.23966107 3.11879865 2.9628 3.45058824-.54369389.14133141-1.11414198.16199118-1.66752.06039216.48380251 1.43391762 1.87025368 2.41622424 3.45024 2.44450984-1.30771077.9796101-2.92315715 1.5114013-4.5864 1.5098039-.29382943-.0005377-.58737307-.0174949-.87912-.0507843 1.68885788 1.0330329 3.65393765 1.5809822 5.66064 1.5784313" fill="#fff" transform="translate(7 9)"/></svg>

<svg xmlns="http://www.w3.org/2000/svg" width="32" height="32" viewBox="0 0 32 32">
  <path fill="#FFF" d="M5.66064,13.9409591 C12.45312,13.9409591 16.16832,8.57703757 16.16832,3.92546894 C16.16832,3.773116 16.16832,3.62144934 16.15752,3.47046894 C16.8802786,2.97217247 17.5041759,2.3551901 18,1.64841012 C17.3259929,1.933078 16.6109971,2.11976311 15.87888,2.20223365 C16.6498157,1.76231937 17.2268089,1.0704105 17.50248,0.255272865 C16.7775534,0.665291218 15.9844652,0.954251702 15.15744,1.10968463 C14.0126996,-0.0505349832 12.1937179,-0.334502813 10.7204755,0.417013992 C9.24723302,1.1685308 8.48611799,2.76863366 8.86392,4.32007679 C5.89456493,4.17818921 3.12802256,2.84137707 1.2528,0.642331688 C0.272608385,2.25071532 0.773271276,4.30831368 2.39616,5.34125326 C1.80845366,5.32465059 1.23356115,5.17353681 0.72,4.90066502 C0.72,4.91507679 0.72,4.93017483 0.72,4.94527286 C0.720481056,6.62087589 1.95966107,8.06407151 3.6828,8.3958611 C3.13910611,8.53719251 2.56865802,8.55785228 2.01528,8.45625326 C2.49908251,9.89017088 3.88553368,10.8724775 5.46552,10.9007631 C4.15780923,11.8803732 2.54236285,12.4121644 0.87912,12.410567 C0.58529057,12.4100293 0.291746927,12.3930721 0,12.3597827 C1.68885788,13.3928156 3.65393765,13.9407649 5.66064,13.938214" transform="translate(7 9)"/>
</svg>
